X:5005
T:Parlalaw. HSJJ.023
O:england
M:4/4
L:1/8
Q:100
S:HSJ Jackson,Wyresdale,Lancs.1823
R:Misc.
A:Lancashire
H:1823
K:G
G|GBBd dcBd|cB AG/F/G3D|GBBd cBAf|f/a/f/d/ e/g/e/^c/|d2-d:|
|:d|gf/g/ ef/g/ fe/f/d2|ed/e/ cd/e/ dc/d/B2|cBAG FE/D/ Gc|B/d/B/G/ A/c/A
/F/|G2-G:|]


